icons/svg/poi_colored/sinkhole.svg

<?xml version="1.0" encoding="UTF-8" standalone="no"?>
<!-- Created with Inkscape (http://www.inkscape.org/) -->

<svg
   xmlns:dc="http://purl.org/dc/elements/1.1/"
   xmlns:cc="http://creativecommons.org/ns#"
   xmlns:rdf="http://www.w3.org/1999/02/22-rdf-syntax-ns#"
   xmlns:svg="http://www.w3.org/2000/svg"
   xmlns="http://www.w3.org/2000/svg"
   xmlns:sodipodi="http://sodipodi.sourceforge.net/DTD/sodipodi-0.dtd"
   xmlns:inkscape="http://www.inkscape.org/namespaces/inkscape"
   version="1.0"
   width="580"
   height="580"
   id="svg2"
   sodipodi:version="0.32"
   inkscape:version="0.91 r"
   sodipodi:docname="sinkhole.svg"
   inkscape:output_extension="org.inkscape.output.svg.inkscape">
  <metadata
     id="metadata10">
    <rdf:RDF>
      <cc:Work
         rdf:about="">
        <dc:format>image/svg+xml</dc:format>
        <dc:type
           rdf:resource="http://purl.org/dc/dcmitype/StillImage" />
        <cc:license
           rdf:resource="http://web.resource.org/cc/PublicDomain" />
        <dc:language>en</dc:language>
        <dc:title />
      </cc:Work>
    </rdf:RDF>
  </metadata>
  <sodipodi:namedview
     inkscape:window-height="1004"
     inkscape:window-width="1920"
     inkscape:pageshadow="2"
     inkscape:pageopacity="0.0"
     guidetolerance="10.0"
     gridtolerance="10.0"
     objecttolerance="10.0"
     borderopacity="1.0"
     bordercolor="#666666"
     pagecolor="#ffffff"
     id="base"
     showgrid="false"
     inkscape:zoom="1"
     inkscape:cx="54.00192"
     inkscape:cy="299.6612"
     inkscape:window-x="1680"
     inkscape:window-y="0"
     inkscape:current-layer="svg2"
     inkscape:window-maximized="1"
     inkscape:snap-global="false">
    <inkscape:grid
       type="xygrid"
       id="grid3034" />
  </sodipodi:namedview>
  <defs
     id="defs4">
    <inkscape:perspective
       sodipodi:type="inkscape:persp3d"
       inkscape:vp_x="0 : 290 : 1"
       inkscape:vp_y="0 : 1000 : 0"
       inkscape:vp_z="580 : 290 : 1"
       inkscape:persp3d-origin="290 : 193.33333 : 1"
       id="perspective12" />
    <style
       type="text/css"
       id="style6">
   
    .fil0 {fill:#EF7900}
   
  </style>
    <inkscape:perspective
       id="perspective6807"
       inkscape:persp3d-origin="29.116032 : 19.410688 : 1"
       inkscape:vp_z="58.232063 : 29.116032 : 1"
       inkscape:vp_y="0 : 1000 : 0"
       inkscape:vp_x="0 : 29.116032 : 1"
       sodipodi:type="inkscape:persp3d" />
    <inkscape:perspective
       id="perspective6954"
       inkscape:persp3d-origin="290 : 193.33333 : 1"
       inkscape:vp_z="580 : 290 : 1"
       inkscape:vp_y="0 : 1000 : 0"
       inkscape:vp_x="0 : 290 : 1"
       sodipodi:type="inkscape:persp3d" />
    <inkscape:perspective
       id="perspective2541"
       inkscape:persp3d-origin="240 : 160 : 1"
       inkscape:vp_z="480 : 240 : 1"
       inkscape:vp_y="0 : 1000 : 0"
       inkscape:vp_x="0 : 240 : 1"
       sodipodi:type="inkscape:persp3d" />
    <inkscape:perspective
       id="perspective2750"
       inkscape:persp3d-origin="215 : 143.33333 : 1"
       inkscape:vp_z="430 : 215 : 1"
       inkscape:vp_y="0 : 1000 : 0"
       inkscape:vp_x="0 : 215 : 1"
       sodipodi:type="inkscape:persp3d" />
    <inkscape:perspective
       id="perspective3730"
       inkscape:persp3d-origin="88.929146 : 101.19778 : 1"
       inkscape:vp_z="177.85829 : 151.79668 : 1"
       inkscape:vp_y="0 : 1000 : 0"
       inkscape:vp_x="0 : 151.79668 : 1"
       sodipodi:type="inkscape:persp3d" />
  </defs>
  <a
     id="a3072">
    <g
       id="g1327">
      <path
         id="path1329"
         style="fill:#111111;stroke:#eeeeee;stroke-width:3.40799999"
         d="M 66.275,1.768 C 24.94,1.768 1.704,23.139 1.704,66.804 L 1.704,516.927 C 1.704,557.771 22.598,579.156 63.896,579.156 L 515.92,579.156 C 557.227,579.156 578.149,558.84 578.149,516.927 L 578.149,66.804 C 578.149,24.203 557.227,1.768 514.627,1.768 C 514.624,1.768 66.133,1.625 66.275,1.768 z" />
    </g>
  </a>
  <g
     id="g1327-3"
     transform="matrix(1.4887701,0,0,1.4888106,-703.87313,-249.96612)" />
  <path
     style="opacity:0.46400003;fill:#fefefe;fill-opacity:0;stroke:none;stroke-width:65.80000305;stroke-linecap:butt;stroke-linejoin:round;stroke-miterlimit:4;stroke-dasharray:none;stroke-opacity:0.68181817"
     d="m 68.849736,98.584956 62.484234,-60.510022 147.72293,-6.405652 67.31943,76.448018 33.83604,74.38689 14.4476,169.69977 32.24731,7.46021 76.48461,39.32203 41.56883,37.28607 -25.17259,76.21202 -66.80317,24.63803 -217.85992,11.2084 -173.226524,-62.037 -26.85924,-230.0863 z"
     id="path3759"
     inkscape:connector-curvature="0"
     sodipodi:nodetypes="ccccccccccccccc" />
  <path
     style="color:#000000;font-style:normal;font-variant:normal;font-weight:normal;font-stretch:normal;font-size:medium;line-height:normal;font-family:Sans;-inkscape-font-specification:Sans;text-indent:0;text-align:start;text-decoration:none;text-decoration-line:none;letter-spacing:normal;word-spacing:normal;text-transform:none;direction:ltr;block-progression:tb;writing-mode:lr-tb;baseline-shift:baseline;text-anchor:start;display:inline;overflow:visible;visibility:visible;opacity:0.69100001;fill:#ffffff;fill-opacity:1;fill-rule:evenodd;stroke:none;stroke-width:0.05437371;stroke-linecap:butt;stroke-linejoin:round;stroke-miterlimit:4;stroke-dasharray:none;stroke-opacity:0.68181817;marker:none;enable-background:accumulate"
     d="M 360.91475,72.784055 C 322.2738,72.986237 280.73843,80.125883 238.80447,94.963039 89.705939,147.71736 -8.2268717,277.77219 20.036462,385.48827 48.299799,493.20436 192.05853,537.7986 341.15706,485.04428 490.2556,432.28995 588.22715,302.18914 559.96381,194.47304 539.64956,117.05209 459.6639,72.267361 360.91475,72.784055 Z m -15.10882,46.292565 c 14.81639,-0.0775 29.09072,1.14718 42.60979,3.59076 l -46.05769,65.46431 c 9.99442,0.90075 19.42012,2.77755 28.04817,5.57622 l 45.07465,-64.1568 c 38.23318,12.7503 67.70354,36.77472 81.77893,70.06958 l -81.41815,26.59541 c 5.44505,7.77728 9.08108,16.56393 10.63913,26.21042 l 78.42545,-25.63174 c 18.11278,40.37574 -18.39098,100.63981 -46.28774,131.02788 L 397.1372,325.79147 c -6.00519,7.28967 -12.87126,14.30687 -20.5325,20.91749 l 61.73067,32.15467 c -29.01206,26.96163 -65.94394,49.70887 -108.0644,64.61201 -4.64483,1.64345 -9.28147,3.15422 -13.90788,4.55929 l -5.30744,-63.22219 c -1.97483,0.72207 -3.95826,1.44631 -5.96605,2.1162 -6.14527,2.05031 -12.24629,3.73645 -18.28555,5.17187 l 5.09438,62.3142 c -37.46853,8.12691 -73.49112,8.47948 -105.10076,1.99515 l 41.35315,-59.8542 c -9.93337,-1.02137 -19.27607,-3.02345 -27.81573,-5.9394 L 159.5001,448.71289 C 121.35342,434.71043 92.612994,409.08398 80.256264,374.00895 l 74.696656,-22.82061 c -3.29905,-6.85747 -5.3944,-14.32981 -6.0411,-22.31699 -0.14277,-1.76341 -0.19788,-3.50728 -0.20096,-5.27598 l -74.45212,22.94895 c -4.114075,-43.5911 15.689114,-90.18538 51.96079,-129.88504 l 59.66532,30.67526 c 6.90262,-6.90724 14.60213,-13.48707 23.0119,-19.57124 l -61.36022,-31.96098 c 28.06431,-24.63882 62.86331,-45.40103 102.19278,-59.31665 4.49956,-1.59205 8.99209,-3.06162 13.47447,-4.42854 l 6.47694,65.11564 c 8.19895,-2.63026 16.31167,-4.71262 24.29032,-6.25418 l -5.98299,-65.32144 c 19.82225,-4.29513 39.24299,-6.42334 57.81788,-6.52053 z"
     id="path3777"
     inkscape:connector-curvature="0"
     sodipodi:nodetypes="sssssssccccccccccccsccsccccccccsccccccsccccs" />
</svg>

<svg width="580" height="580" viewBox="0 0 580 580" fill="none" xmlns="http://www.w3.org/2000/svg">
<path opacity="0.691" fill-rule="evenodd" clip-rule="evenodd" d="M360.915 72.7842C322.274 72.9864 280.738 80.126 238.804 94.9632C89.7059 147.718 -8.22689 277.772 20.0364 385.488C48.2998 493.205 192.059 537.799 341.157 485.044C490.256 432.29 588.227 302.189 559.964 194.473C539.65 117.052 459.664 72.2675 360.915 72.7842ZM345.806 119.077C360.622 118.999 374.897 120.224 388.416 122.668L342.358 188.132C352.352 189.033 361.778 190.909 370.406 193.708L415.481 129.551C453.714 142.302 483.184 166.326 497.26 199.621L415.842 226.216C421.287 233.994 424.923 242.78 426.481 252.427L504.906 226.795C523.019 267.171 486.515 327.435 458.618 357.823L397.137 325.792C391.132 333.081 384.266 340.098 376.605 346.709L438.335 378.864C409.323 405.825 372.391 428.573 330.271 443.476C325.626 445.119 320.989 446.63 316.363 448.035L311.056 384.813C309.081 385.535 307.097 386.259 305.09 386.929C298.944 388.979 292.843 390.666 286.804 392.101L291.898 454.415C254.43 462.542 218.407 462.895 186.798 456.41L228.151 396.556C218.217 395.535 208.875 393.533 200.335 390.617L159.5 448.713C121.353 434.711 92.613 409.084 80.2562 374.009L154.953 351.189C151.654 344.331 149.559 336.859 148.912 328.871C148.769 327.108 148.714 325.364 148.711 323.596L74.2587 346.544C70.1447 302.953 89.9478 256.359 126.22 216.659L185.885 247.335C192.787 240.427 200.487 233.848 208.897 227.763L147.537 195.802C175.601 171.164 210.4 150.401 249.729 136.486C254.229 134.894 258.721 133.424 263.204 132.057L269.681 197.173C277.88 194.543 285.992 192.46 293.971 190.919L287.988 125.597C307.81 121.302 327.231 119.174 345.806 119.077V119.077Z" fill="white"/>
</svg>
